**kern	**silbe	**harmony	**phrase	**leadinstrument	**rhyme	**timestamp	**harte
*ICvox	*	*M4/4	*	*	*	*	*M4/4
*VRlead	*	*	*	*	*	*	*
*Hstimme	*	*	*	*	*	*	*
*B:	*	*B:	*B:	*B:	*	*B:	*B:
*M4/4	*	*	*	*	*	*	*
*clefG2	*	*	*	*	*	*	*
r;	.	1r;	.	r	.	0	N.C.
=1	=1	=1	=1	=1	=1	=1	=1
*>Letter>A	*>Letter>A	*>Letter>A	*>Letter>A	*>Letter>A	*>Letter>A	*>Letter>A	*>Letter>A
*>Label>Intro	*>Label>Intro	*>Label>Intro	*>Label>Intro	*>Label>Intro	*>Label>Intro	*>Label>Intro	*>Label>Intro
1r	.	1BM	newline	r	.	0.37	B:maj
=2	=2	=2	=2	=2	=2	=2	=2
1r	.	1BM	.	r	.	2.71	B:maj
=3	=3	=3	=3	=3	=3	=3	=3
1r	.	2EM	newline	guitar	.	5.049	E:maj/5
.	.	2BM	.	guitar	.	6.183	B:maj
=4	=4	=4	=4	=4	=4	=4	=4
1r	.	2EM	.	guitar	.	7.316	E:maj/5
.	.	2BM	.	guitar	.	8.45	B:maj
=5	=5	=5	=5	=5	=5	=5	=5
1r	.	1F#M	.	guitar	.	9.584	F#:maj
=6	=6	=6	=6	=6	=6	=6	=6
1r	.	1F#M	.	guitar	.	11.851	F#:maj
=7	=7	=7	=7	=7	=7	=7	=7
1r	.	2EM	newline	guitar	.	14.118	E:maj/5
.	.	2BM	.	guitar	.	15.232	B:maj
=8	=8	=8	=8	=8	=8	=8	=8
1r	.	2EM	.	guitar	.	16.346	E:maj/5
.	.	2BM	.	guitar	.	17.46	B:maj
=9	=9	=9	=9	=9	=9	=9	=9
1r	.	1F#M	.	guitar	.	18.575	F#:maj
=10	=10	=10	=10	=10	=10	=10	=10
1r	.	1F#M	.	guitar	.	20.803	F#:maj
=11	=11	=11	=11	=11	=11	=11	=11
*>Letter>A	*>Letter>A	*>Letter>A	*>Letter>A	*>Letter>A	*>Letter>A	*>Letter>A	*>Letter>A
*>Label>Verse	*>Label>Verse	*>Label>Verse	*>Label>Verse	*>Label>Verse	*>Label>Verse	*>Label>Verse	*>Label>Verse
8r	.	2EM	newline	voice	.	23.031	E:maj/5
16e	Why	.	.	.	.	.	.
16e	are	.	.	.	.	.	.
8e	you	.	.	.	.	.	.
8e	in	.	.	.	.	.	.
8e	so	2BM	.	voice	.	24.152	B:maj
8d#	much	.	.	.	.	.	.
8c#	hur-	.	.	.	(A	.	.
8B	-ry	.	.	.	a)	.	.
=12	=12	=12	=12	=12	=12	=12	=12
8r	.	2EM	.	voice	.	25.272	E:maj/5
16e	Is	.	.	.	.	.	.
16e	it	.	.	.	.	.	.
8e	real-	.	.	.	.	.	.
8e	-ly	.	.	.	.	.	.
8e	worth	2BM	.	voice	.	26.392	B:maj
8d#	the	.	.	.	.	.	.
8B	wor-	.	.	.	(A	.	.
[8c#	-ry	.	.	.	a)	.	.
=13	=13	=13	=13	=13	=13	=13	=13
8c#]	_	1F#M	.	voice	.	27.513	F#:maj
8c#	Look	.	.	.	.	.	.
8c#	a-	.	.	.	.	.	.
[8B	-round	.	.	.	B	.	.
8B]	_	.	.	.	.	.	.
16A#	_	.	.	.	.	.	.
16F#	_	.	.	.	.	.	.
4r	.	.	.	.	.	.	.
=14	=14	=14	=14	=14	=14	=14	=14
8r	.	1F#M	.	voice	.	29.753	F#:maj
8c#	Then	.	.	.	.	.	.
8c#	slow	.	.	.	.	.	.
[8B	down	.	.	.	B	.	.
8B]	_	.	.	.	.	.	.
16A#	_	.	.	.	.	.	.
16F#	_	.	.	.	.	.	.
4r	.	.	.	.	.	.	.
=15	=15	=15	=15	=15	=15	=15	=15
8r	.	2EM	newline	voice	.	31.994	E:maj/5
16e	What's	.	.	.	.	.	.
16e	it	.	.	.	.	.	.
8e	like	.	.	.	.	.	.
8e	in-	.	.	.	.	.	.
8e	-side	2BM	.	voice	.	33.122	B:maj
8d#	the	.	.	.	.	.	.
8c#	bub-	.	.	.	(C	.	.
8B	-ble	.	.	.	c)	.	.
=16	=16	=16	=16	=16	=16	=16	=16
8r	.	2EM	.	voice	.	34.249	E:maj/5
16e	Does	.	.	.	.	.	.
16e	your	.	.	.	.	.	.
8e	head	.	.	.	.	.	.
16e	e-	.	.	.	.	.	.
16e	-ver	.	.	.	.	.	.
8e	give	2BM	.	voice	.	35.377	B:maj
8d#	you	.	.	.	.	.	.
8B	trou-	.	.	.	(C	.	.
8c#	-ble	.	.	.	c)	.	.
=17	=17	=17	=17	=17	=17	=17	=17
8r	.	1F#M	.	voice	.	36.505	F#:maj
8B	It's	.	.	.	.	.	.
8c#	no	.	.	.	.	.	.
[8B	sin	.	.	.	D	.	.
8B]	_	.	.	.	.	.	.
16A#	_	.	.	.	.	.	.
16F#	_	.	.	.	.	.	.
4r	.	.	.	.	.	.	.
=18	=18	=18	=18	=18	=18	=18	=18
8r	.	1F#M	.	voice	.	38.76	F#:maj
8c#	Trade	.	.	.	.	.	.
8c#	it	.	.	.	.	.	.
[8B	in	.	.	.	D	.	.
8B]	_	.	.	.	.	.	.
16A#	_	.	.	.	.	.	.
16F#	_	.	.	.	.	.	.
4r	.	.	.	.	.	.	.
=19	=19	=19	=19	=19	=19	=19	=19
*>Letter>B	*>Letter>B	*>Letter>B	*>Letter>B	*>Letter>B	*>Letter>B	*>Letter>B	*>Letter>B
*>Label>Chorus	*>Label>Chorus	*>Label>Chorus	*>Label>Chorus	*>Label>Chorus	*>Label>Chorus	*>Label>Chorus	*>Label>Chorus
*C:	*	*C:	*C:	*C:	*	*C:	*C:
4.f	Hang	2FM	newline	voice	.	41.016	F:maj/5
[8e	on,	.	.	.	.	.	.
8e]	_	2CM	.	voice	.	42.161	C:maj
8r	.	.	.	.	.	.	.
4r	.	.	.	.	.	.	.
=20	=20	=20	=20	=20	=20	=20	=20
8f	help	2FM	.	voice	.	43.306	F:maj/5
16f	is	.	.	.	.	.	.
[16f	on	.	.	.	.	.	.
8f]	_	.	.	.	.	.	.
8g	its	.	.	.	.	.	.
4e	way	2CM	.	voice	E	44.451	C:maj
4r	.	.	.	.	.	.	.
=21	=21	=21	=21	=21	=21	=21	=21
8f	I'll	2FM	.	voice	.	45.596	F:maj/5
16f	be	.	.	.	.	.	.
[16f	there	.	.	.	.	.	.
8f]	_	.	.	.	.	.	.
8g	as	.	.	.	.	.	.
8e	fast	2CM	.	voice	.	46.741	C:maj
8d	as	.	.	.	.	.	.
8c	I	.	.	.	.	.	.
[8e	can	.	.	.	F	.	.
=22	=22	=22	=22	=22	=22	=22	=22
8e]	_	1GM	.	voice	.	47.886	G:maj
[8d	_	.	.	.	.	.	.
4d]	_	.	.	.	.	.	.
2r	.	.	.	.	.	.	.
=23	=23	=23	=23	=23	=23	=23	=23
4.f	Hang	2FM	newline	voice	.	50.176	F:maj/5
[8e	on,	.	.	.	.	.	.
8e]	_	2CM	.	voice	.	51.261	C:maj
8r	.	.	.	.	.	.	.
8r	.	.	.	.	.	.	.
8G	a	.	.	.	.	.	.
=24	=24	=24	=24	=24	=24	=24	=24
8f	ti-	2FM	.	voice	.	52.345	F:maj/5
16f	-ny	.	.	.	.	.	.
[16f	voice	.	.	.	.	.	.
8f]	_	.	.	.	.	.	.
8g	did	.	.	.	.	.	.
4e	say	2CM	.	voice	E	53.43	C:maj
8r	.	.	.	.	.	.	.
8G	From	.	.	.	.	.	.
=25	=25	=25	=25	=25	=25	=25	=25
8f	some-	2FM	.	voice	.	54.515	F:maj/5
8f	-where	.	.	.	.	.	.
8f	deep	.	.	.	.	.	.
8g	in-	.	.	.	.	.	.
8e	-side	2CM	.	voice	.	55.6	C:maj
16d	the	.	.	.	.	.	.
[16d	in-	.	.	.	.	.	.
16d]	_	.	.	.	.	.	.
16c	-ner	.	.	.	.	.	.
[8e	man	.	.	.	F	.	.
=26	=26	=26	=26	=26	=26	=26	=26
8e]	_	1GM	.	voice	.	56.684	G:maj
[8d	_	.	.	.	.	.	.
4d]	_	.	.	.	.	.	.
2r	.	.	.	.	.	.	.
=27	=27	=27	=27	=27	=27	=27	=27
*B:	*	*B:	*B:	*B:	*	*B:	*B:
*>Letter>A	*>Letter>A	*>Letter>A	*>Letter>A	*>Letter>A	*>Letter>A	*>Letter>A	*>Letter>A
*>Label>Verse	*>Label>Verse	*>Label>Verse	*>Label>Verse	*>Label>Verse	*>Label>Verse	*>Label>Verse	*>Label>Verse
8r	.	2EM	newline	voice	.	58.854	E:maj/5
16e	Are	.	.	.	.	.	.
16e	you	.	.	.	.	.	.
8e	al-	.	.	.	.	.	.
8e	-ways	.	.	.	.	.	.
8e	in	2BM	.	voice	.	59.976	B:maj
8d#	con-	.	.	.	.	.	.
8c#	-fu-	.	.	.	(G	.	.
8B	-sion	.	.	.	g)	.	.
=28	=28	=28	=28	=28	=28	=28	=28
8r	.	2EM	.	voice	.	61.099	E:maj/5
16e	Sur-	.	.	.	.	.	.
[16e	-roun-	.	.	.	.	.	.
8e]	_	.	.	.	.	.	.
8e	-ded	.	.	.	.	.	.
8e	by	2BM	.	voice	.	62.221	B:maj
8d#	il-	.	.	.	.	.	.
8B	-lu-	.	.	.	(G	.	.
8c#	-sion	.	.	.	g)	.	.
=29	=29	=29	=29	=29	=29	=29	=29
8r	.	1F#M	.	voice	.	63.344	F#:maj
8c#	Sort	.	.	.	.	.	.
8c#	it	.	.	.	.	.	.
[8B	out	.	.	.	.	.	.
8B]	_	.	.	.	.	.	.
16A#	_	.	.	.	.	.	.
16F#	_	.	.	.	.	.	.
4r	.	.	.	.	.	.	.
=30	=30	=30	=30	=30	=30	=30	=30
8r	.	1F#M	.	voice	.	65.589	F#:maj
8c#	You'll	.	.	.	.	.	.
8c#	make	.	.	.	.	.	.
[8B	out	.	.	.	.	.	.
8B]	_	.	.	.	.	.	.
16A#	_	.	.	.	.	.	.
16F#	_	.	.	.	.	.	.
4r	.	.	.	.	.	.	.
=31	=31	=31	=31	=31	=31	=31	=31
8r	.	2EM	newline	voice	.	67.834	E:maj/5
16e	Seem	.	.	.	.	.	.
16e	to	.	.	.	.	.	.
8e	make	.	.	.	.	.	.
16e	a	.	.	.	.	.	.
16e	good	.	.	.	.	.	.
8r	.	2BM	.	voice	.	68.953	B:maj
8d#	be-	.	.	.	.	.	.
8c#	-gin-	.	.	.	(H	.	.
8B	-ning	.	.	.	h)	.	.
=32	=32	=32	=32	=32	=32	=32	=32
8r	.	2EM	.	voice	.	70.072	E:maj/5
16e	Some-	.	.	.	.	.	.
16e	-one	.	.	.	.	.	.
8.e	else	.	.	.	.	.	.
[16e	ends	.	.	.	.	.	.
8e]	_	2BM	.	voice	.	71.191	B:maj
8d#	up	.	.	.	.	.	.
8B	win-	.	.	.	(H	.	.
8c#	-ning	.	.	.	h)	.	.
=33	=33	=33	=33	=33	=33	=33	=33
8r	.	1F#M	.	voice	.	72.311	F#:maj
8c#	Don't	.	.	.	.	.	.
8c#	seem	.	.	.	.	.	.
[8B	fair	.	.	.	I	.	.
8B]	_	.	.	.	.	.	.
16A#	_	.	.	.	.	.	.
16F#	_	.	.	.	.	.	.
4r	.	.	.	.	.	.	.
=34	=34	=34	=34	=34	=34	=34	=34
8r	.	1F#M	.	voice	.	74.549	F#:maj
8c#	Don't	.	.	.	.	.	.
8c#	you	.	.	.	.	.	.
[8B	care	.	.	.	I	.	.
8B]	_	.	.	.	.	.	.
16A#	_	.	.	.	.	.	.
16F#	_	.	.	.	.	.	.
4r	.	.	.	.	.	.	.
=35	=35	=35	=35	=35	=35	=35	=35
*>Letter>B	*>Letter>B	*>Letter>B	*>Letter>B	*>Letter>B	*>Letter>B	*>Letter>B	*>Letter>B
*>Label>Chorus	*>Label>Chorus	*>Label>Chorus	*>Label>Chorus	*>Label>Chorus	*>Label>Chorus	*>Label>Chorus	*>Label>Chorus
*C:	*	*C:	*C:	*C:	*	*C:	*C:
4.f	Hang	2FM	newline	voice	.	76.788	F:maj/5
[8e	on,	.	.	.	.	.	.
8e]	_	2CM	.	voice	.	77.909	C:maj
8r	.	.	.	.	.	.	.
4r	.	.	.	.	.	.	.
=36	=36	=36	=36	=36	=36	=36	=36
8f	help	2FM	.	voice	.	79.031	F:maj/5
16f	is	.	.	.	.	.	.
[16f	on	.	.	.	.	.	.
8f]	_	.	.	.	.	.	.
8g	its	.	.	.	.	.	.
4e	way	2CM	.	voice	E	80.152	C:maj
4r	.	.	.	.	.	.	.
=37	=37	=37	=37	=37	=37	=37	=37
8f	I'll	2FM	.	voice	.	81.274	F:maj/5
16f	be	.	.	.	.	.	.
[16f	there	.	.	.	.	.	.
8f]	_	.	.	.	.	.	.
8g	as	.	.	.	.	.	.
8e	fast	2CM	.	voice	.	82.396	C:maj
8d	as	.	.	.	.	.	.
8c	I	.	.	.	.	.	.
[8e	can	.	.	.	F	.	.
=38	=38	=38	=38	=38	=38	=38	=38
8e]	_	1GM	.	voice	.	83.517	G:maj
[8d	_	.	.	.	.	.	.
4d]	_	.	.	.	.	.	.
2r	.	.	.	.	.	.	.
=39	=39	=39	=39	=39	=39	=39	=39
4.f	Hang	2FM	newline	voice	.	85.76	F:maj/5
[8e	on,	.	.	.	.	.	.
8e]	_	2CM	.	voice	.	86.88	C:maj
8r	.	.	.	.	.	.	.
8.r	.	.	.	.	.	.	.
16G	a	.	.	.	.	.	.
=40	=40	=40	=40	=40	=40	=40	=40
8f	ti-	2FM	.	voice	.	88	F:maj/5
16f	-ny	.	.	.	.	.	.
[16f	voice	.	.	.	.	.	.
8f]	_	.	.	.	.	.	.
8g	did	.	.	.	.	.	.
4e	say	2CM	.	voice	E	89.119	C:maj
8r	.	.	.	.	.	.	.
8G	From	.	.	.	.	.	.
=41	=41	=41	=41	=41	=41	=41	=41
8f	some-	2FM	.	voice	.	90.239	F:maj/5
8f	-where	.	.	.	.	.	.
8f	deep	.	.	.	.	.	.
8g	in-	.	.	.	.	.	.
8e	-side	2CM	.	voice	.	91.358	C:maj
16d	the	.	.	.	.	.	.
[16d	in-	.	.	.	.	.	.
16d]	_	.	.	.	.	.	.
16c	-ner	.	.	.	.	.	.
[8e	man	.	.	.	F	.	.
=42	=42	=42	=42	=42	=42	=42	=42
8e]	_	1GM	.	voice	.	92.478	G:maj
[8d	_	.	.	.	.	.	.
4d_	_	.	.	.	.	.	.
4d_	_	.	.	.	.	.	.
8d]	_	.	.	.	.	.	.
8r	.	.	.	.	.	.	.
=43	=43	=43	=43	=43	=43	=43	=43
*>Letter>C	*>Letter>C	*>Letter>C	*>Letter>C	*>Letter>C	*>Letter>C	*>Letter>C	*>Letter>C
*>Label>Bridge	*>Label>Bridge	*>Label>Bridge	*>Label>Bridge	*>Label>Bridge	*>Label>Bridge	*>Label>Bridge	*>Label>Bridge
*f#:	*	*f#:	*f#:	*f#:	*	*f#:	*f#:
1r	.	1F#m	newline	piano	.	94.717	F#:min
=44	=44	=44	=44	=44	=44	=44	=44
1r	.	1C#m	.	piano	.	96.955	C#:min/3
=45	=45	=45	=45	=45	=45	=45	=45
1r	.	1AM	.	piano	.	99.194	A:maj/5
=46	=46	=46	=46	=46	=46	=46	=46
1r	.	1Bm	.	piano	.	101.432	B:min
=47	=47	=47	=47	=47	=47	=47	=47
8c#	Don't	1F#m	newline	voice	.	103.67	F#:min
8c#	you	.	.	.	.	.	.
8d	for-	.	.	.	.	.	.
8c#	-get	.	.	.	.	.	.
4r	.	.	.	.	.	.	.
8B	who'll	.	.	.	.	.	.
8A	take	.	.	.	.	.	.
=48	=48	=48	=48	=48	=48	=48	=48
4c#	care	1C#m	.	voice	.	105.889	C#:min/3
8d	of	.	.	.	.	.	.
[8c#	you	.	.	.	G	.	.
8c#]	_	.	.	.	.	.	.
8r	.	.	.	.	.	.	.
4r	.	.	.	.	.	.	.
=49	=49	=49	=49	=49	=49	=49	=49
8c#	It	1AM	.	voice	.	108.109	A:maj/5
4c#	don't	.	.	.	.	.	.
4c#	mat-	.	.	.	.	.	.
8B	-ter	.	.	.	.	.	.
4r	.	.	.	.	.	.	.
=50	=50	=50	=50	=50	=50	=50	=50
8c#	what	1Bm	.	voice	.	110.329	B:min
4B	you	.	.	.	.	.	.
[8B	do	.	.	.	G	.	.
8B]	_	.	.	.	.	.	.
16A#	_	.	.	.	.	.	.
16F#	_	.	.	.	.	.	.
4r	.	.	.	.	.	.	.
=51	=51	=51	=51	=51	=51	=51	=51
8c#	Form	1F#m	newline	voice	.	112.548	F#:min
8B	a	.	.	.	.	.	.
8A	du-	.	.	.	G	.	.
8G#	-et,	.	.	.	.	.	.
4F#	_	.	.	.	.	.	.
8F#	let	.	.	.	.	.	.
8F#	him	.	.	.	.	.	.
=52	=52	=52	=52	=52	=52	=52	=52
8c#	sing	1C#m	.	voice	.	114.841	C#:min/3
8c#	me-	.	.	.	.	.	.
8d	-lo-	.	.	.	(j	.	.
[8c#	-dy	.	.	.	J)	.	.
4c#]	_	.	.	.	.	.	.
4r	.	.	.	.	.	.	.
=53	=53	=53	=53	=53	=53	=53	=53
4c#	You'll	1AM	.	voice	.	117.133	A:maj/5
8B	pro-	.	.	.	.	.	.
8B	-vide	.	.	.	.	.	.
4.A	_	.	.	.	.	.	.
8A	the	.	.	.	.	.	.
=54	=54	=54	=54	=54	=54	=54	=54
4c#	har-	1Bm	.	voice	.	119.426	B:min
8B	-mo-	.	.	.	(j	.	.
[8B	-ny	.	.	.	.J)	.	.
4B]	_	.	.	.	.	.	.
4r	.	.	.	.	.	.	.
=55	=55	=55	=55	=55	=55	=55	=55
1r	.	1AM	.	voice	.	121.718	A:maj
=56	=56	=56	=56	=56	=56	=56	=56
1r	.	1Bm	.	voice	.	124.011	B:min
=57	=57	=57	=57	=57	=57	=57	=57
*C:	*	*C:	*C:	*C:	*	*C:	*C:
1r	.	2CM	newline	guitar	.	126.304	C:maj/5
.	.	2GM	.	guitar	.	127.392	G:maj
=58	=58	=58	=58	=58	=58	=58	=58
1r	.	2CM	.	guitar	.	128.481	C:maj/5
.	.	2GM	.	guitar	.	129.57	G:maj
=59	=59	=59	=59	=59	=59	=59	=59
1r	.	2CM	.	guitar	.	130.659	C:maj/5
.	.	2GM	.	guitar	.	131.748	G:maj
=60	=60	=60	=60	=60	=60	=60	=60
1r	.	2GM	.	guitar	.	132.837	G:maj/5
.	.	2DM	.	guitar	.	133.926	D:maj
=61	=61	=61	=61	=61	=61	=61	=61
1r	.	2CM	newline	guitar	.	135.014	C:maj/5
.	.	2GM	.	guitar	.	136.131	G:maj
=62	=62	=62	=62	=62	=62	=62	=62
1r	.	2CM	.	guitar	.	137.247	C:maj/5
.	.	2GM	.	guitar	.	138.364	G:maj
=63	=63	=63	=63	=63	=63	=63	=63
1r	.	2CM	.	guitar	.	139.481	C:maj/5
.	.	2GM	.	guitar	.	140.597	G:maj
=64	=64	=64	=64	=64	=64	=64	=64
1r	.	2GM	.	guitar	.	141.714	G:maj/5
.	.	2DM	.	guitar	.	142.83	D:maj
=65	=65	=65	=65	=65	=65	=65	=65
*>Letter>A	*>Letter>A	*>Letter>A	*>Letter>A	*>Letter>A	*>Letter>A	*>Letter>A	*>Letter>A
*>Label>Verse	*>Label>Verse	*>Label>Verse	*>Label>Verse	*>Label>Verse	*>Label>Verse	*>Label>Verse	*>Label>Verse
*B:	*	*B:	*B:	*B:	*	*B:	*B:
8r	.	2EM	newline	voice	.	143.947	E:maj/5
16e	Why	.	.	.	.	.	.
16e	are	.	.	.	.	.	.
8e	you	.	.	.	.	.	.
8e	in	.	.	.	.	.	.
8e	so	2BM	.	voice	.	145.061	B:maj
8d#	much	.	.	.	.	.	.
8c#	hur-	.	.	.	(A	.	.
8B	-ry	.	.	.	a)	.	.
=66	=66	=66	=66	=66	=66	=66	=66
8r	.	2EM	.	voice	.	146.176	E:maj/5
16e	Is	.	.	.	.	.	.
16e	it	.	.	.	.	.	.
8e	real-	.	.	.	.	.	.
8e	-ly	.	.	.	.	.	.
8e	worth	2BM	.	voice	.	147.291	B:maj
8d#	the	.	.	.	.	.	.
8B	wor-	.	.	.	(A	.	.
[8c#	-ry	.	.	.	a)	.	.
=67	=67	=67	=67	=67	=67	=67	=67
8c#]	_	1F#M	.	voice	.	148.406	F#:maj
8c#	Look	.	.	.	.	.	.
8c#	a-	.	.	.	.	.	.
[8B	-round	.	.	.	B	.	.
8B]	_	.	.	.	.	.	.
16A#	_	.	.	.	.	.	.
16F#	_	.	.	.	.	.	.
4r	.	.	.	.	.	.	.
=68	=68	=68	=68	=68	=68	=68	=68
8r	.	1F#M	.	voice	.	150.636	F#:maj
8c#	Then	.	.	.	.	.	.
8c#	slow	.	.	.	.	.	.
[8B	down	.	.	.	B	.	.
8B]	_	.	.	.	.	.	.
16A#	_	.	.	.	.	.	.
16F#	_	.	.	.	.	.	.
4r	.	.	.	.	.	.	.
=69	=69	=69	=69	=69	=69	=69	=69
8r	.	2EM	newline	voice	.	152.866	E:maj/5
16e	What's	.	.	.	.	.	.
16e	it	.	.	.	.	.	.
8e	like	.	.	.	.	.	.
8e	in-	.	.	.	.	.	.
8.e	-side	2BM	.	voice	.	153.985	B:maj
16f#	the	.	.	.	.	.	.
8c#	bub-	.	.	.	(C	.	.
8B	-ble	.	.	.	c)	.	.
=70	=70	=70	=70	=70	=70	=70	=70
8r	.	2EM	.	voice	.	155.105	E:maj/5
16e	Does	.	.	.	.	.	.
16e	your	.	.	.	.	.	.
8e	head	.	.	.	.	.	.
16e	e-	.	.	.	.	.	.
16e	-ver	.	.	.	.	.	.
8e	give	2BM	.	voice	.	156.225	B:maj
8d#	you	.	.	.	.	.	.
8B	trou-	.	.	.	(C	.	.
8c#	-ble	.	.	.	c)	.	.
=71	=71	=71	=71	=71	=71	=71	=71
8r	.	1F#M	.	voice	.	157.344	F#:maj
8B	It's	.	.	.	.	.	.
8c#	no	.	.	.	.	.	.
[8B	sin	.	.	.	D	.	.
8B]	_	.	.	.	.	.	.
16A#	_	.	.	.	.	.	.
16F#	_	.	.	.	.	.	.
4r	.	.	.	.	.	.	.
=72	=72	=72	=72	=72	=72	=72	=72
8r	.	1F#M	.	voice	.	159.584	F#:maj
8c#	Trade	.	.	.	.	.	.
8c#	it	.	.	.	.	.	.
[8B	in	.	.	.	D	.	.
8B]	_	.	.	.	.	.	.
16A#	_	.	.	.	.	.	.
16F#	_	.	.	.	.	.	.
4r	.	.	.	.	.	.	.
=73	=73	=73	=73	=73	=73	=73	=73
*>Letter>B	*>Letter>B	*>Letter>B	*>Letter>B	*>Letter>B	*>Letter>B	*>Letter>B	*>Letter>B
*>Label>Chorus	*>Label>Chorus	*>Label>Chorus	*>Label>Chorus	*>Label>Chorus	*>Label>Chorus	*>Label>Chorus	*>Label>Chorus
*C:	*	*C:	*C:	*C:	*	*C:	*C:
4.f	Hang	2FM	newline	voice	.	161.823	F:maj/5
[8e	on,	.	.	.	.	.	.
8e]	_	2CM	.	voice	.	162.943	C:maj
8r	.	.	.	.	.	.	.
4r	.	.	.	.	.	.	.
=74	=74	=74	=74	=74	=74	=74	=74
8f	help	2FM	.	voice	.	164.062	F:maj/5
16f	is	.	.	.	.	.	.
[16f	on	.	.	.	.	.	.
8f]	_	.	.	.	.	.	.
8g	its	.	.	.	.	.	.
4e	way	2CM	.	voice	E	165.182	C:maj
4r	.	.	.	.	.	.	.
=75	=75	=75	=75	=75	=75	=75	=75
8f	I'll	2FM	.	voice	.	166.302	F:maj/5
16f	be	.	.	.	.	.	.
[16f	there	.	.	.	.	.	.
8f]	_	.	.	.	.	.	.
8f	as	.	.	.	.	.	.
6g	fast	2CM	.	voice	.	167.422	C:maj
6e	as	.	.	.	.	.	.
6c	I	.	.	.	.	.	.
=76	=76	=76	=76	=76	=76	=76	=76
4e	can	1GM	.	voice	F	168.541	G:maj
[4d	_	.	.	.	.	.	.
2d]	_	.	.	.	.	.	.
=77	=77	=77	=77	=77	=77	=77	=77
4.f	Hang	2FM	newline	voice	.	170.781	F:maj/5
[8e	on,	.	.	.	.	.	.
8e]	_	2CM	.	voice	.	171.907	C:maj
8r	.	.	.	.	.	.	.
8.r	.	.	.	.	.	.	.
16G	a	.	.	.	.	.	.
=78	=78	=78	=78	=78	=78	=78	=78
8f	ti-	2FM	.	voice	.	173.033	F:maj/5
16f	-ny	.	.	.	.	.	.
[16f	voice	.	.	.	.	.	.
8f]	_	.	.	.	.	.	.
8g	did	.	.	.	.	.	.
4e	say	2CM	.	voice	E	174.159	C:maj
8r	.	.	.	.	.	.	.
8G	From	.	.	.	.	.	.
=79	=79	=79	=79	=79	=79	=79	=79
8f	some-	2FM	.	voice	.	175.285	F:maj/5
8f	-where	.	.	.	.	.	.
8f	deep	.	.	.	.	.	.
8g	in-	.	.	.	.	.	.
8e	-side	2CM	.	voice	.	176.411	C:maj
16d	the	.	.	.	.	.	.
[16d	in-	.	.	.	.	.	.
16d]	_	.	.	.	.	.	.
16c	-ner	.	.	.	.	.	.
[8e	man	.	.	.	F	.	.
=80	=80	=80	=80	=80	=80	=80	=80
8e]	_	1GM	.	voice	.	177.537	G:maj
[8d	_	.	.	.	.	.	.
4d]	_	.	.	.	.	.	.
2r	.	.	.	.	.	.	.
=81	=81	=81	=81	=81	=81	=81	=81
4.f	Hang	2FM	newline	voice	.	179.789	F:maj/5
8e	on,	.	.	.	.	.	.
8r	.	2CM	.	voice	.	180.911	C:maj
8r	.	.	.	.	.	.	.
4r	.	.	.	.	.	.	.
=82	=82	=82	=82	=82	=82	=82	=82
8f	help	2FM	.	voice	.	182.033	F:maj/5
16f	is	.	.	.	.	.	.
[16f	on	.	.	.	.	.	.
8f]	_	.	.	.	.	.	.
8e	its	.	.	.	.	.	.
4e	way	2CM	.	voice	E	183.155	C:maj
4r	.	.	.	.	.	.	.
=83	=83	=83	=83	=83	=83	=83	=83
8f	I'll	2FM	.	voice	.	184.277	F:maj/5
16f	be	.	.	.	.	.	.
[16f	there	.	.	.	.	.	.
8f]	_	.	.	.	.	.	.
8f	as	.	.	.	.	.	.
6g	fast	2CM	.	voice	.	185.399	C:maj
6e	as	.	.	.	.	.	.
6c	I	.	.	.	.	.	.
=84	=84	=84	=84	=84	=84	=84	=84
4e	can	1GM	.	voice	F	186.521	G:maj
[4d	_	.	.	.	.	.	.
4d]	_	.	.	.	.	.	.
4r	.	.	.	.	.	.	.
=85	=85	=85	=85	=85	=85	=85	=85
4.f	Hang	2FM	newline	voice	.	188.766	F:maj/5
[8e	on,	.	.	.	.	.	.
8e]	_	2CM	.	voice	.	189.883	C:maj
8r	.	.	.	.	.	.	.
8.r	.	.	.	.	.	.	.
16G	a	.	.	.	.	.	.
=86	=86	=86	=86	=86	=86	=86	=86
8f	ti-	2FM	.	voice	.	191.001	F:maj/5
16f	-ny	.	.	.	.	.	.
[16f	voice	.	.	.	.	.	.
8f]	_	.	.	.	.	.	.
8g	did	.	.	.	.	.	.
4e	say	2CM	.	voice	E	192.119	C:maj
8r	.	.	.	.	.	.	.
8G	From	.	.	.	.	.	.
=87	=87	=87	=87	=87	=87	=87	=87
8f	some-	2FM	.	voice	.	193.236	F:maj/5
8f	-where	.	.	.	.	.	.
8f	deep	.	.	.	.	.	.
8g	in-	.	.	.	.	.	.
8e	-side	2CM	.	voice	.	194.354	C:maj
16d	the	.	.	.	.	.	.
[16d	in-	.	.	.	.	.	.
16d]	_	.	.	.	.	.	.
16c	-ner	.	.	.	.	.	.
[8e	man	.	.	.	F	.	.
=88	=88	=88	=88	=88	=88	=88	=88
8e]	_	1GM	.	voice	.	195.471	G:maj
[8d	_	.	.	.	.	.	.
4d_	_	.	.	.	.	.	.
4.d]	_	.	.	.	.	.	.
8r	.	.	.	.	.	.	.
=89	=89	=89	=89	=89	=89	=89	=89
*>Letter>A	*>Letter>A	*>Letter>A	*>Letter>A	*>Letter>A	*>Letter>A	*>Letter>A	*>Letter>A
*>Label>Outro	*>Label>Outro	*>Label>Outro	*>Label>Outro	*>Label>Outro	*>Label>Outro	*>Label>Outro	*>Label>Outro
*B:	*	*B:	*B:	*B:	*	*B:	*B:
1r	.	2EM	newline	guitar	.	197.706	E:maj/5
.	.	2BM	.	guitar	.	198.821	B:maj
=90	=90	=90	=90	=90	=90	=90	=90
1r	.	2EM	.	guitar	.	199.935	E:maj/5
.	.	2BM	.	guitar	.	201.05	B:maj
=91	=91	=91	=91	=91	=91	=91	=91
1r	.	1F#M	.	guitar	.	202.164	F#:maj
=92	=92	=92	=92	=92	=92	=92	=92
1r	.	1F#M	.	guitar	.	204.393	F#:maj
=93	=93	=93	=93	=93	=93	=93	=93
[1B	Aah	2EM	newline	guitar	.	206.622	E:maj/5
.	.	2BM	.	guitar	.	207.745	B:maj
=94	=94	=94	=94	=94	=94	=94	=94
2.B]	_	2EM	.	guitar	.	208.868	E:maj/5
.	.	2BM	.	guitar	.	209.991	B:maj
4c#	Aah	.	.	.	.	.	.
=95	=95	=95	=95	=95	=95	=95	=95
2.A#	ah	1F#M	.	guitar	.	211.113	F#:maj
4r	.	.	.	.	.	.	.
=96	=96	=96	=96	=96	=96	=96	=96
8c#	Help	1F#M	.	guitar	.	213.359	F#:maj
16c#	is	.	.	.	.	.	.
[16c#	on	.	.	.	.	.	.
16c#]	_	.	.	.	.	.	.
16B	its	.	.	.	.	.	.
[8d#	way	.	.	.	E	.	.
8d#]	_	.	.	.	.	.	.
8c#	_	.	.	.	.	.	.
4r	.	.	.	.	.	.	.
=97	=97	=97	=97	=97	=97	=97	=97
[1B	Aah	2EM	newline	guitar	.	215.605	E:maj/5
.	.	2BM	.	guitar	.	216.716	B:maj
=98	=98	=98	=98	=98	=98	=98	=98
2.B]	_	2EM	.	guitar	.	217.827	E:maj/5
.	.	2BM	.	guitar	.	218.939	B:maj
4c#	Aah	.	.	.	.	.	.
=99	=99	=99	=99	=99	=99	=99	=99
2.A#	ah	1F#M	.	guitar	.	220.05	F#:maj
4r	.	.	.	.	.	.	.
=100	=100	=100	=100	=100	=100	=100	=100
8c#	Help	1F#M	.	guitar	.	222.273	F#:maj
16c#	is	.	.	.	.	.	.
[16c#	on	.	.	.	.	.	.
16c#]	_	.	.	.	.	.	.
16B	its	.	.	.	.	.	.
[8d#	way	.	.	.	E	.	.
8d#]	_	.	.	.	.	.	.
8c#	_	.	.	.	.	.	.
4r	.	.	.	.	.	.	.
=101	=101	=101	=101	=101	=101	=101	=101
1r	.	2EM	newline	fadeout	.	224.496	E:maj/5
.	.	2BM	.	fadeout	.	225.638	B:maj
=102	=102	=102	=102	=102	=102	=102	=102
1r	.	2EM	.	fadeout	.	226.78	E:maj/5
.	.	2BM	.	fadeout	.	227.922	B:maj
=103	=103	=103	=103	=103	=103	=103	=103
1r	.	1F#M	.	fadeout	.	229.064	F#:maj
=104	=104	=104	=104	=104	=104	=104	=104
1r	.	1F#M	.	fadeout	.	231.349	F#:maj
=105	=105	=105	=105	=105	=105	=105	=105
1r	.	2EM	newline	guitar	.	233.633	E:maj/5
.	.	2BM	.	guitar	.	234.471	B:maj
=106	=106	=106	=106	=106	=106	=106	=106
1r	.	2EM	.	guitar	.	235.309	E:maj/5
.	.	2BM	.	guitar	.	236.147	B:maj
=107	=107	=107	=107	=107	=107	=107	=107
1r	.	2EM	.	guitar	.	236.985	E:maj/5
.	.	2BM	.	guitar	.	237.823	B:maj
=108	=108	=108	=108	=108	=108	=108	=108
1r	.	2EM	.	guitar	.	238.661	E:maj/5
.	.	2BM	.	guitar	.	239.499	B:maj
r;	.	1r;	.	r	.	240.337	N.C.
r;	.	1r;	.	r	.	242.312	N.C.
*-	*-	*-	*-	*-	*-	*-	*-
!!!BillboardChartDate: 1977/11/05, 1977/12/24
!!!BillboardPeak: 14, 14
!!!BillboardWeeksOnChart: 22, 22
!!!COC: Little River Band
!!!ENC: Nathaniel Condit-Schultz
!!!EST: Awating manual error checking and editing.
!!!OTL: Help Is On Its Way
!!!RDF**chordsym: original McGill chord annotation + (implied pitch class set, with bass pitch in first position)
!!!RDF**harmony: **recip + pitch class of root + harmonic quality
!!!RDF**leadinstrument: original McGill primary instrumentation annotation
!!!RDF**phrase: newline = linebreak in original McGill transcription
!!!RDF**timestamp: McGill audio timestamp in seconds
!!!RDT: 2017/01/12/
!!!SampleActualRank: 18, 100
!!!SampleID#: 187, 721
!!!SampleTargetRank: 20, 98
